!!!!SEGMENT: pl-cz--ii-87--009-003_chwalibog-izydor-konstanty--msza-zalobna-offertorium.krn
!!!cenid: 18xx:1209
!!!COM: Chwalibóg, Izydor Konstanty
!!!COM-rismID:
!!!CDT: 1826-1897
!!!CNT:
!!!OPR: Msza żałobna
!!!OTL: Offertorium
!!!OMV: 003
!!!PDT: 1888
!!!AGN: Sacred; Mass
!!!SMS-siglum: PL-CZ
!!!SMS-shelfmark: II-87
!!!SMS-shelfwork: 009-003 M
!!!SMS-variant:
!!!SMS-altvar:
!!!NIFC-rismSourceID: 300033232
!!!NIFC-islandoraID: pl-cz:33881
!!!URL-pdf-islandora: https://repozytorium.nifc.pl/islandora/object/pl-cz%3A33881/datastream/PDF/view
!!!URL-scan:
!!!ONB-nifc: UWAGA: części Mszy: Kirie, Graduale, Offertorium, Sanctus, Benedictus, Agnus
!!!AIN: 1 bass 1 organ 1 tenor
!!!key: A-
**kern	**kern	**kern	**kern	**text
*IGacmp	*IGacmp	*IGcoro	*IGcoro	*
*ICklav	*ICklav	*ICvox	*ICvox	*
*Iorgan	*Iorgan	*Ibass	*Itenor	*
*part3	*part3	*part2	*part1	*part1
*staff4	*staff3	*staff2	*staff1	*staff1
*I"Organ	*	*I"Bas	*I"Tenory	*
*clefF4	*clefG2	*clefF4	*clefG2	*
*k[b-e-a-d-]	*k[b-e-a-d-]	*k[b-e-a-d-]	*k[b-e-a-d-]	*
*A-:	*A-:	*A-:	*A-:	*
*	*	*	*ITrd8c12	*
*M4/4	*M4/4	*M4/4	*M4/4	*
*met(c)	*met(c)	*met(c)	*met(c)	*
=1	=1	=1	=1	=1
!	!LO:N:vis=2	!	!	!
1A-	8a-/L 8cc	2AA-/	2A-/ 2c/	Kró-
.	8e-/	.	.	.
.	8c/	.	.	.
.	8e-/J	.	.	.
!	!LO:N:vis=2	!	!	!
*	*rep	*	*	*
.	8a-/L 8cc	2AA-/	2A-/ 2c/	-lu
.	8e-/	.	.	.
.	8c/	.	.	.
.	8e-/J	.	.	.
*	*Xrep	*	*	*
=2	=2	=2	=2	=2
*	*	*	*^	*
2c\	2e-/ 2a- 2ee-	2C\	2e-/	2A-\	tro-
2A-\	2e-/ 2a- 2cc	2AA-\	2c/	2A-\	-nu
=3	=3	=3	=3	=3	=3
2E-\ 2A- 2c	2e-/ 2a- 2cc	2.E-\	2c/	2A-\	wzpa-
2E-\ 2G 2B-	8g/L 8b-	.	4B-/	4G\	.
.	8e-/	.	.	.	.
.	8g/	4E-\	4B-/	4G\	-nia-
.	8b-/J	.	.	.	.
=4	=4	=4	=4	=4	=4
*^	*	*	*	*	*
2G/	2E-\	2e-/ 2b- 2dd-	4.E-\	4.d-/	4.B-\	-łe-
.	.	.	8AA-/	8c/	8A-\	.
2rAyy	2AA-\ 2A-	8a-/L 8cc	4AA-/	4c/	4A-\	-go
.	.	8e-/	.	.	.	.
.	.	8a-/	4r	4r	4ryy	.
.	.	8cc/J	.	.	.	.
*v	*v	*	*	*	*	*
=5	=5	=5	=5	=5	=5
!!pagebreak:original
*	*^	*	*	*	*
!	!	!	!LO:N:vis=2	!	!	!
1C 1c	2.ee-/	1a-	2.C\	2.e-/	2.A-\	Któ-
.	4een/	.	4C\	4en/	4A-\	-ry
*	*v	*v	*	*	*	*
=6	=6	=6	=6	=6	=6
2D-\	2f/ 2a- 2ff	4.D-\	4.f/	2A-\	zba-
.	.	8C\	8e-/	.	.
2C\	2e-/ 2a- 2ee-	2C\	2e-/	2A-\	-wic
=7	=7	=7	=7	=7	=7
*	*^	*	*	*	*
*	*	*^	*	*	*	*
1BB- 1B-	4ee-/	2e-\	2g/	2.BB-/	4e-/	2G\	Zba-
.	4b-/	.	.	.	4B-/	.	-wic
.	4a-/ 4cc	2e-\	2rBByy	.	4c/	4A-\	chces
.	4g/ 4b-	.	.	4BB-/	4B-/	4G\	.
*	*v	*v	*v	*	*	*	*
=8	=8	=8	=8	=8	=8
1BB- 1B-	4f/ 4a-	2BB-\	4A-/	4F\	kasz-
.	4a-/ 4cc	.	4c/	4A-\	.
.	4g/ 4b-	2BB-\	4B-/	4G\	-de-
.	4f/ 4a-	.	4A-/	4F\	-go
=9	=9	=9	=9	=9	=9
2.E-\	2.e-/ 2.g	2E-\	2G/	2E-\	każde-
.	.	4E-\	4G/	4E-\	-go
4Dn\	4Bn/ 4f 4g	4Dn\	4G/	4F\	zbaw
=10	=10	=10	=10	=10	=10
2C\	2c/ 2e- 2g	2C\	2G/	2E-\	wczy-
2C\ 2c	2e-/ 2g 2ee-	2C\	2e-/	2G\	-sczu
=11	=11	=11	=11	=11	=11
!!linebreak:original
*	*^	*	*	*	*
!	!	!	!	!LO:TX:t=P:problem=nieczytelny tekst	!	!
1C-X 1c-X	2ee-/	2.a-\	2C-X\	2e-/	2A-\	cer-
.	4ff/	.	2C-\	4f/	4A-\	-pią
.	4ee-/	4an\	.	4e-/	4An\	.
=12	=12	=12	=12	=12	=12	=12
2BB-\ 2B-	2.dd-/	2.b-\	2BB-\	2.d-/	2.B-\	ce-
4GG-X\ 4G-X\	.	.	4G-X\	.	.	.
4EEn/ 4En	4g-X/ 4b- 4dd-	4reyy	4En\	4d-/	4B-\	-go
*	*v	*v	*	*	*	*
=13	=13	=13	=13	=13	=13
2F\	2.f/ 2.b- 2.dd-	2F\	2.d-/	2.B-\	Sę-
4D-\	.	4D-\	.	.	.
4B-\	4f/ 4dd- 4ff	4B-\	4f/	4d-\	-dzia
=14	=14	=14	=14	=14	=14
*	*^	*	*	*	*
1AAn 1An	2ff/	1f 1cc	2An\	2f/	2c\	Bo-
.	2ee-/	.	2AAn/	2e-/	2c\	-że
=15	=15	=15	=15	=15	=15	=15
!	!	!	!LO:TX:b:t=bem	!	!	!
2BB-\ 2B-	2f/ 2b- 2dd-	2reyy	2BB-X\	2d-/	2B-\	da-
!	!LO:TX:t=P:problem=kasowniki z prawej strony nut	!	!	!	!	!
2BBn\ 2Bn	4ee-/	2f\ 2a-	2BBn\	4e-/	4A-\	-rój
.	4dd-/	.	.	4d-/	4A-\	.
*	*v	*v	*	*	*	*
=16	=16	=16	=16	=16	=16
1C 1c	4a-/ 4cc	2C\	4c/	4A-\	prze-
.	4b-/ 4dd-	.	4d-/	4B-\	.
.	4a-/ 4cc	2C\	4c/	4A-\	-bacz
.	4g/ 4b-	.	4B-/	4G\	.
=17	=17	=17	=17	=17	=17
1C 1c	4g/ 4b-	2C\	4B-/	4G\	prze-
.	4a-/ 4cc	.	4c/	4A-\	.
.	4g/ 4b-	2C\	4B-/	4G\	-bacz
.	4f/ 4a-	.	4A-/	4F\	.
=18	=18	=18	=18	=18	=18
!!linebreak:original
1C 1c	4f/ 4a-	2.C\	4A-/	4F\	grze-
.	4g/ 4b-	.	4B-/	4G\	.
.	4f/ 4a-	.	4A-/	4F\	-chy
.	4en\ 4g	4C\	4G/	4En\	.
=19	=19	=19	=19	=19	=19
*	*^	*	*	*	*
2F\	2r	2f\	2F\	2F/	2F\	im
4G\	4b-/ 4dd-	2e-\	2r	2r	2ryy	.
4E-\	4g/ 4b-	.	.	.	.	.
*	*v	*v	*	*	*	*
=20	=20	=20	=20	=20	=20
1A-	2e-/ 2a- 2cc	2.AA-/	2.c/	2.A-\	Wiel-
.	8a-/L 8cc	.	.	.	.
.	8e-/	.	.	.	.
.	8a-/	4AA-/	4c/	4A-\	-ki
.	8cc/J	.	.	.	.
=21	=21	=21	=21	=21	=21
2c\	2e-/ 2a- 2ee-	2C\	2e-/	2A-\	Bo-
2A-\	2e-/ 2a- 2cc	2AA-\	2c/	2A-\	-że
=22	=22	=22	=22	=22	=22
2E-\ 2A- 2c	2e-/ 2a- 2cc	2E-\	2c/	2A-\	spro-
2E-\ 2G 2B-	8g/L 8b-	2E-\	4B-/	4G\	-wie-
.	8e-/	.	.	.	.
.	8g/	.	4B-/	4G\	.
.	8b-/J	.	.	.	.
=23	=23	=23	=23	=23	=23
2E-/ 2G 2B-	2e-/ 2b- 2dd-	4.E-\	4.d-/	4.B-\	-dli-
.	.	8AA-/	8c/	8A-\	.
4A-\ 4c	8a-/L 8cc	4AA-/	4c/	4A-\	-wy
.	8e-/	.	.	.	.
4r	8a-/	4r	4r	4ryy	.
.	8cc/J	.	.	.	.
=24	=24	=24	=24	=24	=24
!!pagebreak:original
*	*^	*	*	*	*
1C 1c	2.ee-/	2a-\	2C\	2e-/	2A-\	Bądz
!	!	!	!	!LO:TX:t=P:2\right:problem	!	!
.	.	2ryy	2C\	4e-/	2A-\	dlia
.	4een/	.	.	4en/	.	.
*	*v	*v	*	*	*	*
=25	=25	=25	=25	=25	=25
2D-\ 2d-	2f/ 2a- 2ff	2D-\	4.f/	2A-\	zmar-
.	.	.	8e-/	.	.
2C\ 2c	2e-/ 2a- 2ee-	2C\	2e-/	2A-\	-łych
=26	=26	=26	=26	=26	=26
1D- 1F 1B-	2f/ 2dd-	2D-\	2d-/	2F\	Bądz
.	4g/ 4ee-	2D-\	4e-/	4G\	dlia
.	4f/ 4dd-	.	4d-/	4F\	.
=27	=27	=27	=27	=27	=27
1E- 1A- 1c	2e-/ 2cc	2.E-\	2c/	2E-\	zmar-
.	4f/ 4dd-	.	4d-/	4F\	-łych
.	4e-/ 4cc	4E-\	4c/	4E-\	.
=28	=28	=28	=28	=28	=28
1E- 1G 1B-	2d-/ 2b-	2E-\	2B-/	2D-\	li-
.	4e-/ 4cc	2E-\	4c/	4E-\	-tos-
.	4d-/ 4b-	.	4B-/	4D-\	-ci-
*	*	*	*v	*v	*
=29	=29	=29	=29	=29
2.AA-/ 2.E- 2.A-	2.c/ 2.a-	2AA-/	2C/ 2A-	-wy.
.	.	4AA-/	4C/ 4A-	.
4r	4r	4r	4r	.
==	==	==	==	==
*-	*-	*-	*-	*-
!!!system-decoration: (s1,s2){(s3,s4)}
!!!ENC: Marcin Jachim
!!!END: 2020-11-08
!!!ENC: Krzysztof Stępień
!!!END: 2020-11-08
